svg/eiffel_tower.svg

<svg xmlns="http://www.w3.org/2000/svg" viewBox="0 0 24 24"><path d="M8.21 17c.44-.85.85-1.84 1.23-3H9v-2h1c.61-2.6 1-5.87 1-10h2c0 4.13.4 7.4 1 10h1v2h-.44c.38 1.16.79 2.15 1.23 3H17v2l2 3h-2.42c-.77-1.76-2.53-3-4.58-3s-3.81 1.24-4.58 3H5l2-3-.03-2zm4.38-3h-1.18a22 22 0 0 1-1.13 3h3.44c-.4-.87-.79-1.87-1.13-3"/></svg>

<?xml version="1.0" encoding="UTF-8"?><!DOCTYPE svg PUBLIC "-//W3C//DTD SVG 1.1//EN" "http://www.w3.org/Graphics/SVG/1.1/DTD/svg11.dtd"><svg xmlns="http://www.w3.org/2000/svg" xmlns:xlink="http://www.w3.org/1999/xlink" version="1.1" id="mdi-eiffel-tower" width="24" height="24" viewBox="0 0 24 24"><path d="M8.21 17C8.65 16.15 9.06 15.16 9.44 14H9V12H10C10.61 9.4 11 6.13 11 2H13C13 6.13 13.4 9.4 14 12H15V14H14.56C14.94 15.16 15.35 16.15 15.79 17H17L17 19L19 22H16.58C15.81 20.24 14.05 19 12 19C9.95 19 8.19 20.24 7.42 22H5L7 19L6.97 17H8.21M12.59 14H11.41C11.07 15.13 10.69 16.13 10.28 17H13.72C13.32 16.13 12.93 15.13 12.59 14Z" /></svg>
